X: 13468
T: Florina's
R: reel
M: 4/4
K: Gmajor
|:EAAG AEcE|AcBA GDBc|EAA^G ABcd|BdBA ^GEDE|
cAAG AEcE|AcBA G2 FG|EAA^G ABcd|1 ^GEDE A2 ^GA:|2 ^GEDE ABcd||
|:eaa^g aece|a2 ba gedc|BGdG DGBc|de^ga ^gede|
eaa^g aece|a2 ba gesdc|BGdG dgba|1 ^gedB ABcd:|2 ^gedB A4||

